!!!!SEGMENT: pl-sa--481-a-viii-121--046_anonim--marsz.krn
!!!cenid: 18xx:417
!!!COM: Anonim
!!!COM-rism: pe30004985
!!!CDT:
!!!CNT:
!!!OTL: Marsz
!!!PDT:
!!!AGN: Secular; March
!!!SMS-siglum: PL-SA
!!!SMS-shelfmark: 481/A VIII 121
!!!NIFC-rismID: 1001070732
!!!URL-scan: http://bc.bdsandomierz.pl/dlibra/publication/1212/edition/1171/content
!!!ONB-nifc: Str. 32 (s. 4) – str. 33 (1)
!!!SMS-variant:
!!!SMS-altvar:
**kern	**kern
*part1	*part1
*staff2	*staff1
*I"Piano	*
*I'P-no	*
*clefF4	*clefG2
*k[]	*k[]
*M2/4	*M2/4
*>[A,A,B,B,C,C]	*>[A,A,B,B,C,C]
=1	=1
*>A	*>A
!LO:TX:a:t=P:problem:omyłkowo wpisany klucz F3	!LO:TX:a:t=
2r	8g/L
*	*Xtuplet
.	24g/L
.	24g/
.	24g/JJ
.	8g/L
.	16cc/L
.	16ee/JJ
=2	=2
2r	8g/L
.	24g/L
.	24g/
.	24g/JJ
.	8g/L
.	16cc/L
.	16ee/JJ
=3	=3
2r	8g/L
.	16cc/L
.	16ee/JJ
.	8gg/L
.	16ee/L
.	16cc/JJ
=4	=4
2r	8g/L
.	24g/L
.	24g/
.	24g/JJ
.	4g/
=5	=5
8G\L	8b/L
8fJ 8d\	8dd 8b/
*rep	*
8G\L	8ff 8dd/
8fJ 8d\	8aaJ 8ff/
*Xrep	*
=6	=6
8G\L	8aa 8ff\
8eJ 8c\	4gg 4ee/
*rep	*
8G\L	.
8eJ 8c\	8ee 8cc/
*Xrep	*
=7	=7
8G\L	8gg/L
8fJ 8d\	8ff/
*rep	*
8G\L	8ee/
8fJ 8d\	8dd/J
*Xrep	*
=8	=8
8G\L	8aa/L
8eJ 8c\	8gg/
*rep	*
8G\L	8ee/
8eJ 8c\	8cc/J
*Xrep	*
=9	=9
8G\L	8b\L
8fJ 8d\	8dd 8b\
*rep	*
8G\L	8ff 8dd\
8fJ 8d\	8aaJ 8ff\
*Xrep	*
!LO:LB:g=original	!LO:LB:g=original
=10	=10
8G\L	16ff#X\LL
.	16gg\
8eJ 8c\	16ccc\
.	16gg\JJ
*rep	*
8G\L	16aa/LL
.	16gg/
8eJ 8c\	16ffn/
.	16ee/JJ
*Xrep	*
=11	=11
8G\L	8gg/L
8fJ 8d\	8ff/
*rep	*
8G\L	8dd/
8fJ 8d\	8b/J
*Xrep	*
=12	=12
8eL 8c\	8cc\L
8gJ 8e\	8ee\J
4e 4c\	4cc/
=13:|!|:	=13:|!|:
*>B	*>B
2r	8g/L
.	24g/L
.	24g/
.	24g/JJ
.	8g/L
.	8g/J
=14	=14
4G 4D 4GG/	8ffL 8dd 8b/
.	8g/
4G 4D 4GG/	8dd/
.	8g/J
=15	=15
2r	8g/L
.	24g/L
.	24g/
.	24g/JJ
.	8g/L
.	8g/J
=16	=16
4C 4GG 4CC/	8ggL 8ee 8cc/
.	8g/
4C 4GG 4CC/	8ee 8cc/
.	8g/J
=17!|:	=17!|:
8FL 8C 8FF/	8aaL 8ff 8cc\
8FJ 8C 8FF/	16aaL 16ff 16cc\
.	16ccc\JJ
4C 4GG 4CC/	8ggL 8cc\
.	8ccc\J
=18:|!	=18:|!
8FL 8C 8FF/	8aaL 8ff\
8FJ 8C 8FF/	8ddd\J
8GL 8D 8GG/	16ccc\LL
.	16bb\
8GJ 8D 8GG/	16aa\
.	16bb\JJ
=19	=19
8CL 8GG 8CC/	8cccL 8gg 8ee\
8CJ 8GG 8CC/	8cccJ 8gg 8ee\
4C 4GG 4CC/	4ccc 4gg 4ee\
=20:|!|:;;	=20:|!|:;;
*>C	*>C
*k[b-]	*k[b-]
*M2/4	*M2/4
!	!LO:TX:a:t=Trio
8FL 8D\	8cc 8a/
8cJ 8A\	4aa 4ff\
*rep	*
8FL 8D\	.
8cJ 8A\	8ff 8cc/
*Xrep	*
!LO:PB:g=original	!LO:PB:g=original
=21	=21
*rep	*
8FL 8D\	8cc 8a/
8cJ 8A\	4ccc 4aa\
*Xrep	*
*rep	*
8FL 8D\	.
8cJ 8A\	8aa 8ff/
*Xrep	*
=22	=22
8EL 8C/	16bb-\LL
.	16aa\
8B-J 8G/	16gg\
.	16ff\JJ
*rep	*
8EL 8C/	16ee/LL
.	16dd/
8B-J 8G/	16cc/
.	16b-/JJ
*Xrep	*
=23	=23
8F/L	16a/LL
.	16cc/J
8cJ 8A/	8ccJ 8a/
*rep	*
8F/L	8aaL 8ff/
8cJ 8A/	8ffJ 8cc/
*Xrep	*
=24	=24
*rep	*
8F/L	8cc 8a/
8cJ 8A/	4ccc 4aa\
*Xrep	*
*rep	*
8F/L	.
8cJ 8A/	8ff 8cc/
*Xrep	*
=25	=25
*rep	*
8F/L	8cc 8a/
8cJ 8A/	4ccc 4aa\
*Xrep	*
*rep	*
8F/L	.
8cJ 8A/	8aa 8ff\
*Xrep	*
=26	=26
8C\L	16bb-\LL
.	16aa\
8B-J 8G\	16gg\
.	16ff\JJ
*rep	*
8C\L	16ee/LL
.	16ff/
8B-J 8G\	16gg/
.	16ee/JJ
*Xrep	*
=27	=27
8AL 8F\	8ffL 8cc/
8c\J	8aaJ 8cc/
4A 4F;\	4ff 4cc 4a;\
=:|!;;	=:|!;;
*-	*-
!!!system-decoration: {(s1,s2)}
!!!ENC: Marta Lawrence
!!!END: 2020-11-23
!!!ENC: Anastazja Marusiak
!!!END: 2020-06-15
